src/icon/action/logout/icon_logout_xl_white.svg

<svg width="40" height="40" viewBox="0 0 40 40" xmlns="http://www.w3.org/2000/svg"><g fill-rule="nonzero" fill-opacity=".9" fill="#FFF"><path d="M22.438 34C23.826 34 25 32.855 25 31.5V25h-1v6.5c0 .813-.716 1.5-1.562 1.5h-14C7.632 33 7 32.341 7 31.5v-23C7 7.659 7.632 7 8.438 7h14C23.284 7 24 7.687 24 8.5V14h1V8.5C25 7.145 23.826 6 22.438 6h-14C7.07 6 6 7.098 6 8.5v23C6 32.902 7.07 34 8.438 34h14z"/><path d="M30.459 13.854L35.605 19H16.188v1h19.418l-5.146 5.146.707.707L37.52 19.5l-6.354-6.354-.707.708zm5.603 5.689v-.086l.043.043-.043.043z"/></g></svg>

<svg width="40px" height="40px" viewBox="0 0 40 40" version="1.1" xmlns="http://www.w3.org/2000/svg"><g fill-rule="nonzero" stroke="none" stroke-width="1" fill="none"><rect fill="#D8D8D8" opacity="0" x="0" y="0" width="40" height="40"/><path d="M22.438,34 C23.826,34 25,32.855 25,31.5 L25,25 L24,25 L24,31.5 C24,32.313 23.284,33 22.438,33 L8.438,33 C7.632,33 7,32.341 7,31.5 L7,8.5 C7,7.659 7.632,7 8.438,7 L22.438,7 C23.284,7 24,7.687 24,8.5 L24,14 L25,14 L25,8.5 C25,7.145 23.826,6 22.438,6 L8.438,6 C7.07,6 6,7.098 6,8.5 L6,31.5 C6,32.902 7.07,34 8.438,34 L22.438,34 Z" fill-opacity="0.9" fill="#FFFFFF"/><path d="M30.459,13.854 L35.605,19 L16.188,19 L16.188,20 L35.606,20 L30.46,25.146 L31.167,25.853 L37.52,19.5 L31.166,13.146 L30.459,13.854 Z M36.062,19.543 L36.062,19.457 L36.105,19.5 L36.062,19.543 Z" fill-opacity="0.9" fill="#FFFFFF"/></g></svg>
